X:1
T:Jesus Is All the World to Me
T:Jesus Is All the World to Me
T:Will Lamartine Thompson
T:Will Lamartine Thompson, 1904
T:Public Domain Courtesy of the Cyber Hymnal™
T:Public Domain Courtesy of the Cyber Hymnal™
C:Will Lamartine Thompson
Z:Public Domain
Z:Courtesy of the Cyber Hymnal™
%%score ( 1 2 ) ( 3 4 )
L:1/8
Q:1/4=100
M:6/8
K:Ab
V:1 treble 
V:2 treble 
V:3 bass 
V:4 bass 
V:1
 [Ec]>[DB][CA] [Fd]2 [Ec] | [Ec]2 [DB] [CA]2 [CE] | [EA]2 [EA] [EB]2 [EB] | [Ec]3- [Ec]2 [Ee] | %4
w: 1.~Je- sus is all the|world to me, my|life, my joy, my|all; * He|
w: 2.~Je- sus is all the|world to me, my|friend in tri- als|sore; * I|
w: 3.~Je- sus is all the|world to me, and|true to Him I’ll|be; * O|
w: 4.~Je- sus is all the|world to me, I|want no bet- ter|friend; * I|
 [Ge]2 [GB] [GB]2 [Ge] | [Ae]2 [Ac] [Ac]2 [Ac] | [GB]2 [FA] (FG)[_DA] | [DB]3- [DB]2 z | %8
w: is my strength from|day to day, with-|out Him I * would|fall. *|
w: go to Him for|bless- ings, and He|gives them over * and|o’er. *|
w: how could I this|friend de- ny, when|He’s so true * to|me? *|
w: trust Him now, I’ll|trust Him when life’s|fleet- ing days * shall|end. *|
 [CE][CF][CA] [CF]2 [A,C] | [CE]2 [CF] [CE]3 | [CE][CF][CA] [CF]2 [A,C] | [CE]2 [CF] [CE]3 | %12
w: When I am sad, to|Him I go,|no o- ther one can|cheer me so;|
w: He sends the sun- shine|and the rain,|He sends the har- vest’s|gold- en grain;|
w: Fol- low- ing Him I|know I’m right,|He watch- es o’er me|day and night;|
w: Beau- ti- ful life with|such a friend,|beau- ti- ful life that|has no end;|
 [CA][CA][CA] [=B,A]3 | [CA][CA][EA] !fermata![Ee]3 | [CA]3 [DB]3 | [CA]6 |] %16
w: When I am sad,|He makes me glad,|He’s my|friend.|
w: Sun- shine and rain,|har- vest of grain,|He’s my|friend.|
w: Fol- low- ing Him|by day and night,|He’s my|friend.|
w: E- ter- nal life,|e- ter- nal joy,|He’s my|friend.|
V:2
 x6 | x6 | x6 | x6 | x6 | x6 | x3 =D2 x | x6 | x6 | x6 | x6 | x6 | x6 | x6 | x6 | x6 |] %16
V:3
 [A,,A,]>[A,,A,][A,,A,] [A,,A,]2 [A,,A,] | [E,A,]2 E, [A,,E,]2 [A,,A,] | %2
 [C,A,]2 [C,A,] [E,G,]2 [E,G,] | [A,,A,]3- [A,,A,]2 [A,C] | [E,B,]2 [E,E] [E,E]2 [E,B,] | %5
 [A,C]2 [A,E] [A,E]2 [A,E] | [B,E]2 [B,,B,] [B,,A,]2 [B,,F,] | [E,G,]3- [E,G,]2 z | %8
 [A,,A,][A,,A,][A,,E,] [A,,A,]2 [E,A,] | [A,,A,]2 [A,,A,] [A,,A,]3 | %10
 [A,,A,][A,,A,][A,,E,] [A,,A,]2 [E,A,] | [A,,A,]2 [A,,A,] [A,,A,]3 | [F,A,][F,A,][F,A,] [=E,A,]3 | %13
 [=E,A,][E,A,][E,C] !fermata![C,A,]3 | [E,A,]3 [E,G,]3 | [A,,E,]6 |] %16
V:4
 x6 | x2 E, x3 | x6 | x6 | x6 | x6 | x6 | x6 | x6 | x6 | x6 | x6 | x6 | x6 | x6 | x6 |] %16

